X: 04038
T: JANE MILLER'S JIG
C: Bob McQuillen 3 Feb 79
B: Bob's Note Book 04 #38
R: jig
Z: 2020 John Chambers <jc:trillian.mit.edu>
M: 6/8
L: 1/8
K: D
A \
| ded dAG | FDD D2A | ded dAG | FEE E2F |\
| GBG FAF | DFA dcd | Bcd ede | fdd d2 :|
|: B \
| Add ede | fdd d2B | Add fef | gee e2B |\
| Adf afa | bgb afd | fga gec | edd d2 :|
%%begintext align
%% A lovely lady is Roddy's
%% wife. She teaches school
%% in Antrim, N.H., and
%% this is her tune.
%%endtext

%%sep 1 1 500

%%sep 1 1 500

